src/shared/svg/sidebar/Estate_Performance.svg

<svg width="20" height="20" viewBox="0 0 20 20" fill="none" xmlns="http://www.w3.org/2000/svg">
<g clip-path="url(#clip0_4870_104616)">
<path d="M13.1094 8.52344C12.7578 8.79297 12.2344 8.82422 11.8828 8.51953L7.4219 4.61719L1.45745 8.5586C1.02698 8.87891 0.444555 8.76172 0.157563 8.33203C-0.129664 7.90234 -0.013238 7.32031 0.417602 7.03125L6.98049 2.65742C7.33206 2.42226 7.7969 2.45312 8.11721 2.73203L12.5078 6.57031L18.4532 1.47578C18.8438 1.13867 19.4375 1.18437 19.7735 1.57734C20.1133 1.97031 20.0664 2.56211 19.6719 2.89922L13.1094 8.52344ZM9.37503 10.5898V16.8399C9.37503 17.9102 8.53518 18.7149 7.50003 18.7149C6.46487 18.7149 5.62502 17.9102 5.62502 16.8399V10.5898C5.62502 9.58985 6.46487 8.71485 7.50003 8.71485C8.53518 8.71485 9.37503 9.58985 9.37503 10.5898ZM7.81253 16.8399V10.5898C7.81253 10.4531 7.6719 10.2773 7.50003 10.2773C7.32815 10.2773 7.18753 10.4531 7.18753 10.5898V16.8399C7.18753 17.0469 7.32815 17.1524 7.50003 17.1524C7.6719 17.1524 7.81253 17.0469 7.81253 16.8399ZM4.37502 14.3398V16.8399C4.37502 17.9102 3.53557 18.7149 2.50002 18.7149C1.46448 18.7149 0.625024 17.9102 0.625024 16.8399V14.3398C0.625024 13.3398 1.46448 12.4648 2.50002 12.4648C3.53557 12.4648 4.37502 13.3398 4.37502 14.3398ZM2.81252 16.8399V14.3398C2.81252 14.2031 2.67268 14.0273 2.50002 14.0273C2.32737 14.0273 2.18752 14.2031 2.18752 14.3398V16.8399C2.18752 17.0469 2.32737 17.1524 2.50002 17.1524C2.67268 17.1524 2.81252 17.0469 2.81252 16.8399ZM10.625 13.0898C10.625 12.0898 11.4649 11.2148 12.5 11.2148C13.5352 11.2148 14.375 12.0898 14.375 13.0898V16.8399C14.375 17.9102 13.5352 18.7149 12.5 18.7149C11.4649 18.7149 10.625 17.9102 10.625 16.8399V13.0898ZM12.5 12.7773C12.3282 12.7773 12.1875 12.9531 12.1875 13.0898V16.8399C12.1875 17.0469 12.3282 17.1524 12.5 17.1524C12.6719 17.1524 12.8125 17.0469 12.8125 16.8399V13.0898C12.8125 12.9531 12.6719 12.7773 12.5 12.7773ZM19.375 10.5898V16.8399C19.375 17.9102 18.5352 18.7149 17.5 18.7149C16.4649 18.7149 15.625 17.9102 15.625 16.8399V10.5898C15.625 9.58985 16.4649 8.71485 17.5 8.71485C18.5352 8.71485 19.375 9.58985 19.375 10.5898ZM17.8125 16.8399V10.5898C17.8125 10.4531 17.6719 10.2773 17.5 10.2773C17.3282 10.2773 17.1875 10.4531 17.1875 10.5898V16.8399C17.1875 17.0469 17.3282 17.1524 17.5 17.1524C17.6719 17.1524 17.8125 17.0469 17.8125 16.8399Z" fill="#8A8DBA"/>
</g>
<defs>
<clipPath id="clip0_4870_104616">
<rect width="20" height="20" fill="white"/>
</clipPath>
</defs>
</svg>

<svg width="20" height="20" viewBox="0 0 20 20" fill="none" xmlns="http://www.w3.org/2000/svg"><g clip-path="url(#a)"><path d="M13.11 8.523c-.352.27-.876.301-1.227-.003L7.422 4.617 1.457 8.56a.903.903 0 0 1-1.3-.227.939.939 0 0 1 .26-1.3L6.98 2.656a.936.936 0 0 1 1.137.075l4.39 3.838 5.946-5.094a.936.936 0 0 1 1.32.101.934.934 0 0 1-.101 1.322l-6.563 5.624ZM9.374 10.59v6.25c0 1.07-.84 1.875-1.875 1.875a1.853 1.853 0 0 1-1.875-1.875v-6.25c0-1 .84-1.875 1.875-1.875 1.035 0 1.875.875 1.875 1.875Zm-1.562 6.25v-6.25c0-.137-.141-.313-.313-.313-.172 0-.312.176-.312.313v6.25c0 .207.14.312.312.312s.313-.105.313-.312Zm-3.438-2.5v2.5c0 1.07-.84 1.875-1.875 1.875A1.853 1.853 0 0 1 .625 16.84v-2.5c0-1 .84-1.875 1.875-1.875 1.036 0 1.875.875 1.875 1.875Zm-1.562 2.5v-2.5c0-.137-.14-.313-.313-.313s-.312.176-.312.313v2.5c0 .207.14.312.312.312.173 0 .313-.105.313-.312Zm7.812-3.75c0-1 .84-1.875 1.875-1.875 1.035 0 1.875.875 1.875 1.875v3.75c0 1.07-.84 1.875-1.875 1.875a1.853 1.853 0 0 1-1.875-1.875v-3.75Zm1.875-.313c-.172 0-.313.176-.313.313v3.75c0 .207.141.312.313.312.172 0 .313-.105.313-.312v-3.75c0-.137-.141-.313-.313-.313Zm6.875-2.187v6.25c0 1.07-.84 1.875-1.875 1.875a1.853 1.853 0 0 1-1.875-1.875v-6.25c0-1 .84-1.875 1.875-1.875 1.035 0 1.875.875 1.875 1.875Zm-1.563 6.25v-6.25c0-.137-.14-.313-.312-.313s-.313.176-.313.313v6.25c0 .207.141.312.313.312.172 0 .313-.105.313-.312Z" fill="#8A8DBA"/></g><defs><clipPath id="a"><path fill="#fff" d="M0 0h20v20H0z"/></clipPath></defs></svg>
